raw/symbols/rsr.svg

<svg width="42" height="42" viewBox="0 0 42 42" fill="none" xmlns="http://www.w3.org/2000/svg">
<circle cx="21" cy="21" r="20" fill="#222222"/>
<path fill-rule="evenodd" clip-rule="evenodd" d="M14.3301 8H17.9597C18.0984 8 18.2093 8.11343 18.2093 8.25206V13.5554C18.2093 13.6966 18.3227 13.8075 18.4613 13.8075H23.1219C23.2605 13.8075 23.374 13.6966 23.374 13.5554V8.25206C23.374 8.11343 23.4849 8 23.626 8H27.2532C27.3918 8 27.5052 8.11343 27.5052 8.25206V13.5554C27.5052 13.6966 27.6161 13.8075 27.7573 13.8075H32.1936C32.3347 13.8075 32.4456 13.9209 32.4456 14.0595V17.6791C32.4456 17.8203 32.3347 17.9312 32.1936 17.9312H27.7573C27.6161 17.9312 27.5052 18.0446 27.5052 18.1832V23.8168C27.5052 23.9554 27.6161 24.0688 27.7573 24.0688H32.1936C32.3347 24.0688 32.4456 24.1797 32.4456 24.3209V27.9405C32.4456 28.0791 32.3347 28.1925 32.1936 28.1925H27.7573C27.6161 28.1925 27.5052 28.306 27.5052 28.4446V33.7479C27.5052 33.8866 27.3918 34 27.2532 34H23.626C23.4849 34 23.374 33.8866 23.374 33.7479V28.4446C23.374 28.3034 23.2605 28.1925 23.1219 28.1925H18.4638C18.3252 28.1925 18.2118 28.306 18.2118 28.4446V33.7479C18.2118 33.8866 18.1009 34 17.9622 34H14.3326C14.1939 34 14.0805 33.8866 14.0805 33.7479V28.4446C14.0805 28.3034 13.9696 28.1925 13.8285 28.1925H9.3922C9.25104 28.1925 9.14014 28.0791 9.14014 27.9405V24.3209C9.14014 24.1797 9.25104 24.0688 9.3922 24.0688H13.8285C13.9696 24.0688 14.0805 23.9554 14.0805 23.8168V18.1832C14.0805 18.0446 13.9696 17.9312 13.8285 17.9312H9.3922C9.25104 17.9312 9.14014 17.8203 9.14014 17.6791V14.0595C9.14014 13.9209 9.25104 13.8075 9.3922 13.8075H13.8285C13.9696 13.8075 14.0805 13.6966 14.0805 13.5554V8.25206C14.0755 8.11343 14.1914 8 14.3301 8ZM23.3765 23.8193V18.1832C23.3765 18.0446 23.2631 17.9312 23.1244 17.9312H18.4638C18.3252 17.9312 18.2118 18.0446 18.2118 18.1832V23.8168C18.2118 23.9554 18.3252 24.0688 18.4638 24.0688H23.1244C23.2631 24.0714 23.3765 23.9554 23.3765 23.8193Z" fill="white"/>
</svg>

<svg xmlns="http://www.w3.org/2000/svg" width="42" height="42" fill="none"><circle cx="21" cy="21" r="20" fill="#222"/><path fill="#fff" fill-rule="evenodd" d="M14.33 8h3.63a.25.25 0 0 1 .25.252v5.303c0 .142.113.252.251.252h4.66c.14 0 .253-.11.253-.252V8.252c0-.139.11-.252.252-.252h3.627c.139 0 .252.113.252.252v5.303c0 .142.111.252.252.252h4.437c.14 0 .252.114.252.252v3.62a.25.25 0 0 1-.252.252h-4.437a.251.251 0 0 0-.252.252v5.634c0 .138.111.252.252.252h4.437a.25.25 0 0 1 .252.252v3.62c0 .138-.111.252-.252.252h-4.437a.251.251 0 0 0-.252.252v5.303a.253.253 0 0 1-.252.252h-3.627a.251.251 0 0 1-.252-.252v-5.303a.251.251 0 0 0-.252-.253h-4.658a.253.253 0 0 0-.252.253v5.303a.25.25 0 0 1-.25.252h-3.63a.253.253 0 0 1-.252-.252v-5.303a.25.25 0 0 0-.252-.253H9.393a.251.251 0 0 1-.252-.252v-3.62a.25.25 0 0 1 .252-.251h4.437a.251.251 0 0 0 .252-.252v-5.634a.251.251 0 0 0-.252-.252H9.392a.25.25 0 0 1-.252-.252v-3.62c0-.138.111-.252.252-.252h4.437a.25.25 0 0 0 .252-.252V8.252A.248.248 0 0 1 14.33 8Zm9.046 15.82v-5.637a.253.253 0 0 0-.252-.252h-4.66a.253.253 0 0 0-.252.252v5.634c0 .138.113.252.252.252h4.66a.25.25 0 0 0 .253-.25Z" clip-rule="evenodd"/></svg>
